X:1
T: Lord Doune's Reel
C:
R:Reel
Q: 232
K:F
M:4/4
L:1/8
|:c|AF cA f2 cf|AF cA BG GB|AF Ac df eg|fc dB AF Fc|
AF cA f2 cf|AF cA BG GB|AF Ac df eg|fc dB AF Fc|
fa ge f2 cf|AF cA BG Ge|fa ga fc dA|BG cB AF Fc|
fa ge f2 cf|AF cA BG GB|AF A,F B,F CF|Dd cB AF F:|
